X:1
T:Who’s on the Lord’s Side?
T:Philip Paul Bliss
T:Who’s on the Lord’s Side?
T:Public Domain
T:Public Domain
T:Public Domain
C:Philip Paul Bliss
Z:Public Domain
%%score ( 1 2 ) ( 3 4 )
L:1/8
M:4/4
K:F
V:1 treble 
V:2 treble 
V:3 bass 
V:4 bass 
V:1
 (C>F) | [FA]2 [FA]>[F^G] [FA]2 F>[FA] | [Ac]2 [Ac]>[^G=B] [Ac]2 ([FA]>[EG]) | %3
w: 1.~We’re *|ing to Ca- naan, with ban-|and song, We’re sol- diers *|
w: 2.~The *|may be bur- nished, the ar-|be bright, For Sa- tan *|
w: 3.~Who *|there a- mong us yet un-|the rod, Who knows not *|
w: 4.~Oh, *|not the sor- row, the pain|the wrong, For soon shall *|
 [DF]2 [DF]>D [DF]2 F>[FG] | [FA]2 [EG]>[^D^F] [EG]2 (C>=F) | [FA]2 [FA]>[F^G] [FA]2 F>[FA] | %6
w: en- list- ed to fight ’gainst|But, lest in the con- *|our strength should di- vide, We|
w: ap- pears as an an- gel|Yet dark- ly the bo- *|may treach- er- y hide, While|
w: the par- don- ing mer- cy|Oh, bring to Him hum- *|the heart in its pride; Oh,|
w: our sigh- ing be changed in-|So, bear- ing the cross *|our co- ve- nant Guide, We’ll|
 [Ac]2 [Ac]>[^G=B] [Ac]3 [FA] | [EG]2 [EG]>[EG] [Ec] [Ec]2 [Ec] | [D=B]>[Ec] ([Ge]>[Fd]) [Ec]2 || %9
w: “Who a- mong us is|on the Lord’s side?” * *||
w: are pro- fess- ing, “I’m|on the Lord’s side.” Oh, who|is there a- * mong|
w: while He’s wait- ing and|seek the Lord’s side. * *||
w: as we tri- umph, “I’m|on the Lord’s side.” * *||
"^Refrain" (d>c) | [Fc]>[Fc] [Fc]>[Fc] [Fc] [FA]2 [FA] | [EA]2 [EA]>[EG] [EA]3 [EG] | %12
w: |||
w: us, *|true and the tried, Who’ll stand by|His col- ors— who’s on|
w: |||
w: |||
 [DF]2 [DF]>D [DF] [DF]2 F | [FA]>[EG] [EG]2 [EG]2 (d>c) | [Fc]>[Fc] [Fc]>[Fc] [Fc] [FA]2 [FA] | %15
w: |||
w: the Lord’s side? Oh, who is|mong us, the true and *|tried, Who’ll stand by His col- ors—|
w: |||
w: |||
 [EA]2 [EA]>[EG] [EA]3 [EG] | F2 [DF]>D [DF] [DF]2 [DF] | [EG]>[EG] [EG]2 [FA]2 |] %18
w: |||
w: who’s on the Lord’s side?|||
w: |||
w: |||
V:2
 C2 | x6 F3/2 x/ | x8 | x7/2 D/ x3/2 F3/2 x | x6 C2 | x6 F3/2 x/ | x8 | x8 | x6 || E2 | x8 | x8 | %12
w: march-|ner||the wrong;|flict|ask,|||||||
w: sword|mor||of light;|som|lips||||the|||
w: is|der||of God?|bly|haste,|||||||
w: heed|and||to song;|of|shout,|||||||
 x7/2 D/ x5/2 F x/ | x6 E2 | x8 | x8 | F2 D/ x11/2 | x6 |] %18
w: ||||||
w: there a-|the|||||
w: ||||||
w: ||||||
V:3
 [F,A,]2 | [F,C]2 [F,C]>[F,=B,] [F,C]2 [F,A,]>[F,C] | F,2 F,>F, F,2 (C>B,) | %3
 [D,A,]2 [D,A,]>[D,F,] [D,A,]2 [D,A,]>[D,=B,] | [C,C]2 [C,C]>[C,C] [C,C]2 [F,A,]2 | %5
 [F,C]2 [F,C]>[F,=B,] [F,C]2 [F,A,]>[F,C] | F,2 F,>F, F,3 [F,C] | [G,C]2 [G,C]>[G,C] [G,C] G,2 G, | %8
 G,>G, G,2 [C,G,]2 || [C,B,]2 | [F,A,]>[F,A,] [F,A,]>[F,A,] [F,A,] [F,C]2 [F,C] | %11
 [A,,^C]2 [A,,C]>[A,,C] [A,,C]3 [A,,C] | [D,D]2 [D,A,]>[D,F,] [D,A,] [D,A,]2 [D,=B,] | %13
 [C,C]>[C,C] [C,C]2 [C,C]2 [C,B,]2 | [F,A,]>[F,A,] [F,A,]>[F,A,] [F,A,] [F,C]2 [F,C] | %15
 [A,,^C]2 [A,,C]>[A,,C] [A,,C]3 [A,,C] | [D,D]2 [D,A,]>[D,F,] [D,A,] [D,A,]2 [D,A,] | %17
 [C,C]>[C,C] [C,C]2 [F,C]2 |] %18
V:4
 x2 | x8 | F,2 F,>F, F,2 C,2 | x8 | x8 | x8 | F,2 F,>F, F,3 x | x5 G,2 G, | G,>G, G,2 x2 || x2 | %10
 x8 | x8 | x8 | x8 | x8 | x8 | x8 | x6 |] %18

